X: 18152
T: Humours Of Currageen, The
R: jig
M: 6/8
K: Gmajor
G|DGG {B/}AGG|cAF G2g|de=f edB|cAA A2F|
DGG {B/}AGG|cAG/F/ G2g|de=f edB|cA^F G2||
A|B2B {d/}cBc|d2e =fed|cAA {B/}A2G|cAA {B/}A2G|
B2B {d/}cBc|d2e =fed|cAA {B/}AG^F|AGG G2||

